lib/assets/buttons/cmd_setup.svg

<svg height="24" viewBox="0 0 24 24" width="24" xmlns="http://www.w3.org/2000/svg">
    <path d="m12 8a4 4 0 0 1 4 4 4 4 0 0 1 -4 4 4 4 0 0 1 -4-4 4 4 0 0 1 4-4m0 2a2 2 0 0 0 -2 2 2 2 0 0 0 2 2 2 2 0 0 0 2-2 2 2 0 0 0 -2-2m-2 12c-.25 0-.46-.18-.5-.42l-.37-2.65c-.63-.25-1.17-.59-1.69-.99l-2.49 1.01c-.22.08-.49 0-.61-.22l-2-3.46c-.13-.22-.07-.49.12-.64l2.11-1.66-.07-.97.07-1-2.11-1.63c-.19-.15-.25-.42-.12-.64l2-3.46c.12-.22.39-.31.61-.22l2.49 1c.52-.39 1.06-.73 1.69-.98l.37-2.65c.04-.24.25-.42.5-.42h4c.25 0 .46.18.5.42l.37 2.65c.63.25 1.17.59 1.69.98l2.49-1c.22-.09.49 0 .61.22l2 3.46c.13.22.07.49-.12.64l-2.11 1.63.07 1-.07 1 2.11 1.63c.19.15.25.42.12.64l-2 3.46c-.12.22-.39.31-.61.22l-2.49-1c-.52.39-1.06.73-1.69.98l-.37 2.65c-.04.24-.25.42-.5.42zm1.25-18-.37 2.61c-1.2.25-2.26.89-3.03 1.78l-2.41-1.04-.75 1.3 2.11 1.55c-.4 1.17-.4 2.44 0 3.6l-2.12 1.56.75 1.3 2.43-1.04c.77.88 1.82 1.52 3.01 1.76l.37 2.62h1.52l.37-2.61c1.19-.25 2.24-.89 3.01-1.77l2.43 1.04.75-1.3-2.12-1.55c.4-1.17.4-2.44 0-3.61l2.11-1.55-.75-1.3-2.41 1.04c-.77-.89-1.83-1.53-3.03-1.77l-.37-2.62z" />
</svg>

<?xml version="1.0" encoding="UTF-8"?><!DOCTYPE svg PUBLIC "-//W3C//DTD SVG 1.1//EN" "http://www.w3.org/Graphics/SVG/1.1/DTD/svg11.dtd"><svg xmlns="http://www.w3.org/2000/svg" xmlns:xlink="http://www.w3.org/1999/xlink" version="1.1" width="24" height="24" viewBox="0 0 24 24"><path d="M12,8A4,4 0 0,1 16,12A4,4 0 0,1 12,16A4,4 0 0,1 8,12A4,4 0 0,1 12,8M12,10A2,2 0 0,0 10,12A2,2 0 0,0 12,14A2,2 0 0,0 14,12A2,2 0 0,0 12,10M10,22C9.75,22 9.54,21.82 9.5,21.58L9.13,18.93C8.5,18.68 7.96,18.34 7.44,17.94L4.95,18.95C4.73,19.03 4.46,18.95 4.34,18.73L2.34,15.27C2.21,15.05 2.27,14.78 2.46,14.63L4.57,12.97L4.5,12L4.57,11L2.46,9.37C2.27,9.22 2.21,8.95 2.34,8.73L4.34,5.27C4.46,5.05 4.73,4.96 4.95,5.05L7.44,6.05C7.96,5.66 8.5,5.32 9.13,5.07L9.5,2.42C9.54,2.18 9.75,2 10,2H14C14.25,2 14.46,2.18 14.5,2.42L14.87,5.07C15.5,5.32 16.04,5.66 16.56,6.05L19.05,5.05C19.27,4.96 19.54,5.05 19.66,5.27L21.66,8.73C21.79,8.95 21.73,9.22 21.54,9.37L19.43,11L19.5,12L19.43,13L21.54,14.63C21.73,14.78 21.79,15.05 21.66,15.27L19.66,18.73C19.54,18.95 19.27,19.04 19.05,18.95L16.56,17.95C16.04,18.34 15.5,18.68 14.87,18.93L14.5,21.58C14.46,21.82 14.25,22 14,22H10M11.25,4L10.88,6.61C9.68,6.86 8.62,7.5 7.85,8.39L5.44,7.35L4.69,8.65L6.8,10.2C6.4,11.37 6.4,12.64 6.8,13.8L4.68,15.36L5.43,16.66L7.86,15.62C8.63,16.5 9.68,17.14 10.87,17.38L11.24,20H12.76L13.13,17.39C14.32,17.14 15.37,16.5 16.14,15.62L18.57,16.66L19.32,15.36L17.2,13.81C17.6,12.64 17.6,11.37 17.2,10.2L19.31,8.65L18.56,7.35L16.15,8.39C15.38,7.5 14.32,6.86 13.12,6.62L12.75,4H11.25Z" /></svg>
